X:97
T:Reels simple chords 105
M:3/4
L:1/8
K:Em
dc [B2G,2B,2D2] d2 | G2 B2 [A2D,2F,2A,2] | F2 D4 | [B2G,2B,2D2] G2 d2 | B2 [A4D,4F,4A,4] |
d4 [g2G,2B,2D2] | d2 B2>d2 | [e2A,2C2E2] c2 A3 |G [F2D,2F,2A,2C2] A2 |
D2 F4< [G4G,4B,4D4] | dc | [B2G,2B,2D2] d2 G2 | B2 [A2D,2F,2A,2] F2 |
D4 [B2G,2B,2D2] | G2 d2 B2 | [A4D,4F,4A,4] d4 | [g2G,2B,2D2] d2 |
B2>d2 [e2A,2C2E2] | c2 A2>G2 | [F2D,2F,2A,2C2] A2 D2 | F2 [G8G,8B,8D8] |
[D2D,2F,2A,2C2] | EF G2 G2 | [E2E,2G,2B,2] FG A2 | A2 [F2F,2A,2^C2] GA |
B2 B2 [G2E,2G,2B,2] | F2 E4 | [D2D,2F,2A,2C2] EF G2 | G2 [E2E,2G,2B,2] FG |
A2 d2 [dD,F,A,C]e | dc B2 A2 | [G8G,8B,8D8] | [D2D,2F,2A,2C2] EF |
G2 G2 [E2E,2G,2B,2] | FG A2 A2 | [F2F,2A,2^C2] GA B2 | B2 [G2E,2G,2B,2] F2 |
E4 [D2D,2F,2A,2C2] | EF G2 G2 | [E2E,2G,2B,2] FG A2 | d2 [dD,F,A,C]e dc |
B2 A2 [G8G,8B,8D8] | [d2D,2F,2A,2] d2 dA | Fd [c2C,2E,2G,2] c2 | cG Ec [^A2A,2D2=F2] |
^A2 A=F DA | [A8A,8^C8E8] | [d2D,2F,2A,2] d2 | d2 ^cd [e2A,2=C2E2] |
c2 A2 G2 | [F2D,2F,2A,2C2] A2 de | f2 [g8G,8B,8D8] | [d2D,2F,2A,2] |
d2 dA Fd | [c2C,2E,2G,2] c2 cG | Ec [^A2A,2D2=F2] A2 | ^A=F DA [=A8A,8^C8E8] |
[d2D,2F,2A,2] d2 d2 | ^cd [e2A,2=C2E2] c2 | A2 G2 [F2D,2F,2A,2C2] | A2 de f2 |
[g8G,8B,8D8] |


